X: 34643
T: Road To Banff, The
R: jig
M: 6/8
K: Dmajor
A|Add dB/c/d|BAG A3|A3 eAf|g3 ecB|
Add dB/c/d|BAG A3|A3 eAf|gec d2:|
|:g|a3 fdA|g3 ecB|A3 eAf|g3 efg|
a3 fdA|g3 ecB|A3 eAf|gecd2:|

